!!!OTL: WAS KUEMMERT MICH DIE GANZE WELT
!!!ARE: Europa, Mitteleuropa, Deutschland
!!!SCT: F0796
!!!YEM: Copyright 1995, estate of Helmut Schaffrath.
**kern
*ICvox
*Ivox
*M2/4
*k[b-e-a-]
*E-:
{16e-
16g
=1
8b-
8cc
8b-
16e-
16g
=2
8b-
8cc
8b-
16r}
{16b-
=3
8an
8a-
8g
8b-
=4
4f
8r}
{16e-
16g
=5
8b-
8cc
8b-
16e-
16g
=6
8b-
8cc
8b-}
{8ee-
=7
8ee-
16dd
16cc
8dd
8bn
=8
8cc
4g}
{8ee-
=9
8dd
16cc
16b-
8cc
8an
=10
4b-
8r}
{8B-
=11
8B-
8B-
8B-
8B-
=12
8B-
8g
8f}
{16g
16f
=13
8e-
16g
16f
8e-
16d
16c
=14
4g
8r}
{8ee-
=15
8dd
8cc
8b-
16g
16a-
=16
8b-
8a-
8g}
{8b-
=17
8b-
8a-
8g
8f
=18
8g
8an
8b-}
{8cc
=19
8b-
8g
8a-
8f
=20
4e-
8r}
==
!!!AGN: Geselligkeits - Lied, Scherz
!!!ONB: ESAC (Essen Associative Code) Database: FINK
!!!AMT: simple duple
!!!AIN: vox
!!!EED: Helmut Schaffrath
!!!EEV: 1.0
*-
